!!!!SEGMENT: pl-kk--kk-i-636--003-006_anonim--in-sabbato-sancto-responsorium-3tium.krn
!!!cenid: 18xx:4552
!!!COM: Anonim
!!!COM-rismID: pe30004985
!!!CDT:
!!!CNT:
!!!OPR: In Sabbato Sancto
!!!OTL: Responsorium 3tium
!!!OMV: 006
!!!PDT:
!!!AGN: Sacred
!!!YEC: Copyright 2022 Narodowy Instytut Fryderyka Chopina (https://polishscores.org)
!!!YEM: License CC-BY-4.0 (https://creativecommons.org/licenses/by/4.0)
!!!SMS-siglum: PL-Kk
!!!SMS-shelfmark: Kk.I.636
!!!SMS-variant:
!!!SMS-altvar:
!!!SMS-shelfwork: 003-006 M
!!!NIFC-rismSourceID: 1001216440
!!!NIFC-rismChildID: 1001216930
!!!NIFC-islandoraID: pl-kk:40786
!!!URL-pdf-islandora: https://repozytorium.nifc.pl/islandora/object/pl-kk%3A40786/datastream/PDF/view
!!!URL-scan: https://polish.musicsources.pl/pl/lokalizacje/galeria/rekopisy/7271/1 @EN{Scan on Polish Music Sources Website} @PL{Skany w portalu Dziedzictwo Muzyki Polskiej w otwartym dostępie}
!!!IIIF:
!!!ONB-nifc: UWAGA: Lamentacje i Responsoria In Sabbato Sancto na skanach: S – 15-20, A – 37-42, T – 60-66, B - 86-92. Każda Lamentacja i Responsorium to oddzielne pliki.
!!!AIN: 1 alto 1 bass 1 soprn 1 tenor
!!!key:
**kern	**text	**kern	**text	**kern	**text	**kern	**text
*part4	*part4	*part3	*part3	*part2	*part2	*part1	*part1
*staff4	*staff4	*staff3	*staff3	*staff2	*staff2	*staff1	*staff1
*I"Basso.	*	*I"Tenore.	*	*I"Alto.	*	*I"Soprano.	*
*I'B	*	*I'T	*	*I'A	*	*I'S	*
*Ibass	*	*Itenor	*	*Ialto	*	*Isoprn	*
*ICvox	*	*ICvox	*	*ICvox	*	*ICvox	*
*clefF4	*	*clefC4	*	*clefC3	*	*clefC1	*
*k[b-e-a-]	*	*k[b-e-a-]	*	*k[b-e-a-]	*	*k[b-e-a-]	*
*E-:	*	*E-:	*	*E-:	*	*E-:	*
*M4/4	*	*M4/4	*	*M4/4	*	*M4/4	*
*met(c)	*	*met(c)	*	*met(c)	*	*met(c)	*
=1	=1	=1	=1	=1	=1	=1	=1
*2\right	*	*2\right	*	*2\right	*	*2\right	*
2E-\	Plan-	2e-\	Plan-	2g\	Plan-	2b-\	Plan-
2BB-/	-ge	2d\	-ge	2f\	-ge	2b-\	-ge
!	!	!	!	!	!	!LO:LB:g=original	!
=2	=2	=2	=2	=2	=2	=2	=2
4E-\	qua-	4e-\	qua-	8g\L	qua-	4b-\	qua-
.	.	.	.	8a-\J	.	.	.
4G\	-si	4e-\	-si	4.b-\	.	4e-/	-si
2A-\	vir-	2e-\	vir-	.	.	2cc\	vir-
.	.	.	.	8a-\	-si	.	.
.	.	.	.	[4a-\	vir-	.	.
!LO:LB:g=original	!	!LO:LB:g=original	!	!LO:LB:g=original	!	!	!
=3	=3	=3	=3	=3	=3	=3	=3
4D\	-go,	4f\	-go	4a-\]	.	4b-\	-go
4E-\	plebs	4B-\	plebs	8g\	-go	2b-\	plebs
.	.	.	.	8g\	plebs	.	.
2C/	me-	2e-\	me-	4g\	me-	.	.
.	.	.	.	8f\L	.	4an\	me-
.	.	.	.	8e-\J	.	.	.
=4	=4	=4	=4	=4	=4	=4	=4
4BB-/	-a,	4d\	-a,	4f\	-a,	2b-\	-a.
2B-\	u-	2d\	u-	2f\	u-	.	.
.	.	.	.	.	.	2r	.
4B-\	-lu-	4e-\	-lu-	4g\	-lu-	.	.
=5	=5	=5	=5	=5	=5	=5	=5
2.B-\	-la-	4.d\	-la-	4.f\	-la-	4r	.
.	.	.	.	.	.	2b-\	u-
.	.	16c\LL	.	16e-\LL	.	.	.
.	.	16B-\JJ	.	16d\JJ	.	.	.
.	.	4d\	.	4f\	.	.	.
4E-\	.	4e-\	.	4g\	.	4b-\	-lu-
=6	=6	=6	=6	=6	=6	=6	=6
8D\	.	4.B-\	.	4.f\	.	(1b-	-la-
8BB-/	-te,	.	.	.	.	.	.
2B-\	u-	.	.	.	.	.	.
.	.	8c\	-te,	8f\	-te,	.	.
.	.	4d\	u-	4f\	u-	.	.
4B-\	-lu-	4d\	-lu-	4f\	-lu-	.	.
!LO:LB:g=original	!	!LO:LB:g=original	!	!LO:LB:g=original	!	!LO:LB:g=original	!
=7	=7	=7	=7	=7	=7	=7	=7
2A-\	-la-	2d\	-la-	2f\	-la-	2bn\)	.
4A-\	-te	4d\	-te	4f\	-te	4b\	-te
4A-\	pa-	4Bn\	Pa-	4f\	pa-	4b\	pa-
=8	=8	=8	=8	=8	=8	=8	=8
2G\	-sto-	2c\	-sto-	2en\	-sto-	2b-X\	-sto-
4G\	-res	4c\	-res	4e\	-res,	4b-\	-res
4En\	in	4c\	in	4e\	in	4b-\	in
=9	=9	=9	=9	=9	=9	=9	=9
4.F\	ci-	4.c\	ci-	4.e-X\	ci-	4.an\	ci-
8F\	-ne-	8c\	-ne-	8e-\	-ne-	8a\	-ne-
2F\	-re	2c\	-re	2e-\	-re,	2a\	-re
=10	=10	=10	=10	=10	=10	=10	=10
2BB-/	et	2B-X\	et	2d\	et	2a-X\	et
2E-\	ci-	2B-\	ci-	4.e-\	ci-	4.g\	ci-
.	.	.	.	8f\	.	8a-\	.
!LO:LB:g=original	!	!	!	!LO:LB:g=original	!	!LO:LB:g=original	!
=11	=11	=11	=11	=11	=11	=11	=11
2.AAn/	-li-	2.c\	-li-	2.e-\	-li-	2.g\	-li-
4AA/	-ci-	4c\	-ci-	4e-\	-ci-	4g\	-ci-
!	!	!LO:LB:g=original	!	!	!	!	!
=12	=12	=12	=12	=12	=12	=12	=12
4BB-/	-o,	4F/	-o,	4d\	-o,	4f/	-o,
2B-\	qu-	2d\	qu-	2f\	qu-	2b-\	qu-
4A-\	-ia	4d\	-ia	4f\	-ia	4b-\	-ia
=13	=13	=13	=13	=13	=13	=13	=13
2G\	ve-	2d-X\	ve-	2e-\	ve-	2b-\	ve-
2G\	-nit	2d-\	-nit	2e-\	-nit	2b-\	-nit
!	!	!	!	!LO:LG:g=original	!	!	!
=14	=14	=14	=14	=14	=14	=14	=14
4A-\	di-	4c\	di-	4e-\	di-	4.cc\	di-
4A-\	-es	4c\	-es	4e-\	-es	.	.
.	.	.	.	.	.	8cc\	-es
4.A-\	Do-	4.c\	Do-	4.e-\	Do-	4.a-\	Do-
8A-\	-mi-	8c\	-mi-	8e-\	-mi-	8a-\	-mi-
!	!	!	!	!	!	!LO:LB:g=original	!
=15	=15	=15	=15	=15	=15	=15	=15
2E-\	-na	2B-\	-ni	2e-\	-ni	2g\	-ni
2E-\	ma-	[2B-\	ma-	2e-\	ma-	[2g\	ma-
!LO:LB:g=original	!	!	!	!LO:LG:g=original	!	!	!
=16	=16	=16	=16	=16	=16	=16	=16
2BB-/	-gna,	4B-\]	.	8e-\L	.	8g/L]	.
.	.	.	.	16d\L	.	16f/L	.
.	.	.	.	16c\JJ	.	16e-/JJ	.
.	.	4B-\	-gna,	4d\	-gna	4f/	-gna,
!	!	!LO:TX:b:i:t=V.S.	!	!	!	!	!
2B-\	ma-	2d\	ma-	2f\	ma-	2b-\	ma-
!	!	!LO:PB:g=original	!	!	!	!	!
=17	=17	=17	=17	=17	=17	=17	=17
4F\	-gna	4c\	-gna,	4f\	-gna,	4an\	-gna
2F\	et	2c\	et	2f\	et	2a\	et
4E-\	a-	4c\	a-	4f\	a-	4a\	a-
=18	=18	=18	=18	=18	=18	=18	=18
2D\	-ma-	2B-\	-ma-	1f	-ma-	[1a-X	-ma-
4D\	-ra	4B-\	-ra	.	.	.	.
4D\	a-	4B-\	a-	.	.	.	.
=19	=19	=19	=19	=19	=19	=19	=19
2E-\	-ma-	2B-\	-ma-	4f\	.	4a-\]	.
.	.	.	.	8e-\L	.	8g/L	.
.	.	.	.	8d\J	.	8f/J	.
2E-\	-ra	8B-/L	.	2e-\	-ra	4g\	-ra
.	.	8A-/	.	.	.	.	.
.	.	8G/	.	.	.	[4b-\	val-
.	.	8B-/J	-ra	.	.	.	.
!	!	!	!	!	!	!LO:LB:g=original	!
=20	=20	=20	=20	=20	=20	=20	=20
1AA-	val-	[1c	val-	1e-	val-	4b-\]	.
.	.	.	.	.	.	8a-\L	.
.	.	.	.	.	.	8g\J	.
.	.	.	.	.	.	[2a-\	.
!LO:LB:g=original	!	!	!	!LO:LG:g=original	!	!	!
=21	=21	=21	=21	=21	=21	=21	=21
1E-	.	4c\]	.	1e-	.	4a-\]	.
.	.	8B-\L	.	.	.	8g\L	.
.	.	8A-\J	.	.	.	8f\J	.
.	.	2B-\	.	.	.	2g\	.
=22	=22	=22	=22	=22	=22	=22	=22
!	!	!	!	!	!	!LO:TX:b:i:t=Volti Subitto&colon;	!
1E-	-de.	1B-	-de.	1e-	-de.	1g	-de.
!	!	!LO:LB:g=original	!	!	!	!LO:PB:g=original	!
=23||	=23||	=23||	=23||	=23||	=23||	=23||	=23||
!LO:TX:a:t=2.	!	!LO:TX:a:t=4.	!	!LO:TX:a:t=Solo.	!	!LO:TX:a:t=4.	!
0r	.	00r	.	2c\	ac-	00r	.
.	.	.	.	4.g\	-cin-	.	.
.	.	.	.	8f\	-gi-	.	.
=24	=24	=24	=24	=24	=24	=24	=24
.	.	.	.	4e-\	-te	.	.
.	.	.	.	4a-\	vos	.	.
.	.	.	.	4g\	sa-	.	.
.	.	.	.	4f\	-cer-	.	.
=25	=25	=25	=25	=25	=25	=25	=25
!LO:TX:a:t=Solo.	!	!	!	!	!	!	!
2C/	Ac-	.	.	8.e-\L	-do-	.	.
.	.	.	.	16d\Jk	.	.	.
.	.	.	.	4c\	-tes	.	.
4.G\	-cin-	.	.	2r	.	.	.
8F\	-gi-	.	.	.	.	.	.
!	!	!	!	!LO:LB:g=original	!	!	!
=26	=26	=26	=26	=26	=26	=26	=26
!	!	!	!	!LO:TX:a:t=4.	!	!	!
4E-\	-te	.	.	00r	.	.	.
4A-\	vos	.	.	.	.	.	.
4G\	Sa-	.	.	.	.	.	.
4F\	-cer-	.	.	.	.	.	.
!LO:LB:g=original	!	!	!	!	!	!	!
=27	=27	=27	=27	=27	=27	=27	=27
!	!	!LO:TX:a:t=Solo.	!	!	!	!LO:TX:a:t=Solo.	!
8.E-\L	-do-	4r	.	.	.	4r	.
16D\Jk	.	.	.	.	.	.	.
4C/	-tes,	4e-\	et	.	.	4cc\	et
2r	.	[2d-X\	plan-	.	.	[2b-\	plan-
=28	=28	=28	=28	=28	=28	=28	=28
!LO:TX:a:t=2	!	!	!	!	!	!	!
0r	.	4d-X\]	.	.	.	4b-\]	.
.	.	4c\	-gi-	.	.	4a-\	-gi-
.	.	8B-\L	-te	.	.	8g/L	-te
.	.	8A-\J	.	.	.	8f/J	.
.	.	8A-/L	mi-	.	.	8f/L	mi-
.	.	8G/J	.	.	.	8en/J	.
=29	=29	=29	=29	=29	=29	=29	=29
.	.	8A-\L	-ni-	.	.	8f/L	-ni-
.	.	8B-\J	.	.	.	8g/J	.
.	.	8c\	-stri	.	.	8a-\	-stri
.	.	8dn\	al-	.	.	8b-\	al-
.	.	8qqd/	.	.	.	4qqdd/	.
.	.	2e-\	-ta-	.	.	2cc\	-ta-
!	!	!	!	!	!	!LO:LB:g=original	!
=30	=30	=30	=30	=30	=30	=30	=30
4r	.	2d\	-ris.	4r	.	2bn\	-ris.
4G\	et	.	.	4Bn/	et	.	.
[2A-\	plan-	2r	.	[2f\	plan-	2r	.
!	!	!LO:LB:g=original	!	!	!	!	!
=31	=31	=31	=31	=31	=31	=31	=31
!	!	!LO:TX:a:t=6.	!	!	!	!LO:TX:a:t=4.	!
4A-\]	.	00r	.	4f\]	.	00r	.
4G\	-gi-	.	.	4e-\	-gi-	.	.
8F\L	-te	.	.	8d\L	-te	.	.
8E-\J	.	.	.	8c\J	.	.	.
8E-\L	mi-	.	.	8c\L	mi-	.	.
8D\J	.	.	.	8Bn\J	.	.	.
!LO:PB:g=original	!	!	!	!	!	!	!
=32	=32	=32	=32	=32	=32	=32	=32
8E-\L	-ni-	.	.	8c\L	ni-	.	.
8F\J	.	.	.	8d\J	.	.	.
8G\	-stri	.	.	8e-\	-stri	.	.
8An\	al-	.	.	8f\	al-	.	.
2B-\	-ta-	.	.	2g\	-ta-	.	.
!	!	!	!	!LO:LB:g=original	!	!	!
=33	=33	=33	=33	=33	=33	=33	=33
2An\	-ris,	.	.	4f#X\	-ris,	.	.
.	.	.	.	4d\	a-	.	.
4r	.	.	.	[2g\	-sper-	.	.
4G\	as-	.	.	.	.	.	.
=34	=34	=34	=34	=34	=34	=34	=34
4.c\	-per-	.	.	4g\]	.	.	.
.	.	.	.	8f#X\L	-gi-	.	.
8c\	-gi-	.	.	8en\J	.	.	.
4c\	-te	.	.	4f#\	-te	.	.
4An\	vos	.	.	4f#\	vos	.	.
=35	=35	=35	=35	=35	=35	=35	=35
8.B-\	ci-	0r	.	8.g\	ci-	2g\	ac-
16An\	-ne-	.	.	16d\	-ne-	.	.
!LO:LB:g=original	!	!	!	!	!	!	!
4G\	-re,	.	.	4d\	-re,	.	.
2r	.	.	.	2r	.	4.dd\	-cin-
.	.	.	.	.	.	8cc\	-gi-
=36	=36	=36	=36	=36	=36	=36	=36
!LO:TX:a:t=3.	!	!	!	!LO:TX:a:t=3	!	!	!
0r	.	.	.	0r	.	4b-\	-te
.	.	.	.	.	.	4ee-\	vos
.	.	.	.	.	.	4dd\	Sa-
.	.	.	.	.	.	4cc\	-cer-
!	!	!	!	!	!	!LO:LB:g=original	!
=37	=37	=37	=37	=37	=37	=37	=37
.	.	2G/	ac-	.	.	8.b-\L	-do-
.	.	.	.	.	.	16an\Jk	.
.	.	.	.	.	.	4g\	-tes,
.	.	4.d\	-cin-	.	.	2r	.
.	.	8c\	-gi-	.	.	.	.
=38	=38	=38	=38	=38	=38	=38	=38
!	!	!	!	!	!	!LO:TX:a:t=4	!
1r	.	4B-\	-te	1r	.	00r	.
.	.	4e-\	vos	.	.	.	.
.	.	4d\	Sa-	.	.	.	.
.	.	4c\	-cer-	.	.	.	.
!	!	!	!	!LO:LB:g=original	!	!	!
=39	=39	=39	=39	=39	=39	=39	=39
4r	.	8.B-\L	-do-	4r	.	.	.
.	.	16An\Jk	.	.	.	.	.
4B-\	et	4G/	-tes,	4g\	et	.	.
[2A-X\	plan-	2r	.	2f\	plan-	.	.
=40	=40	=40	=40	=40	=40	=40	=40
!	!	!LO:TX:a:t=2	!	!	!	!	!
4A-\]	.	0r	.	4f\	.	.	.
4G\	gi-	.	.	4e-\	gi-	.	.
8F\L	-te	.	.	8d\L	-te	.	.
8E-\J	.	.	.	8c\J	.	.	.
8E-\L	mi-	.	.	8c\L	mi-	.	.
8D\J	.	.	.	8Bn\J	.	.	.
!LO:LB:g=original	!	!	!	!	!	!	!
=41	=41	=41	=41	=41	=41	=41	=41
8E-\L	-ni-	.	.	8c\L	-ni-	.	.
8F\J	.	.	.	8d\J	.	.	.
8G\	-stri	.	.	8e-\	-stri	.	.
8An\	al-	.	.	8f\	al-	.	.
2B-\	-ta-	.	.	2g\	-ta-	.	.
!	!	!LO:LB:g=original	!	!LO:LB:g=original	!	!	!
=42	=42	=42	=42	=42	=42	=42	=42
2An\	-ris,	4r	.	2f#X\	-ris	4r	.
.	.	4d\	et	.	.	4f#X/	et
2r	.	[2e-\	plan-	2r	.	[2cc\	plan-
=43	=43	=43	=43	=43	=43	=43	=43
!	!	!	!	!LO:TX:t=P:problem:takt dopisany ołówkiem	!	!	!
!LO:TX:a:t=2	!	!	!	!LO:TX:a:t=1	!	!	!
0r	.	4e-\]	.	1r	.	4cc\]	.
.	.	4d\	gi-	.	.	4b-\	-gi-
.	.	8c\L	-te	.	.	8an\L	-te
.	.	8B-\J	.	.	.	8g\J	.
.	.	8B-\L	mi-	.	.	8g/L	mi-
.	.	8An\J	.	.	.	8f#X/J	.
!	!	!	!	!	!	!LO:LB:g=original	!
=44	=44	=44	=44	=44	=44	=44	=44
.	.	8B-\L	-ni-	4r	.	8g\L	-ni-
.	.	8c\J	.	.	.	8a-\J	.
.	.	8d\	-stri	4d\	as-	8b-\	-stri
.	.	8e-\	al-	.	.	8cc\	al-
.	.	[2f\	-ta-	4.Bn/	-per-	[2dd\	-ta-
.	.	.	.	8B/	-gi-	.	.
!	!	!LO:LB:g=original	!	!	!	!	!
=45	=45	=45	=45	=45	=45	=45	=45
4r	.	4f\]	.	2c\	-te	4dd\]	.
4c\	as-	8e-\L	.	.	.	8cc\L	.
.	.	8d\J	.	.	.	8bn\J	.
4.F#X\	-per-	2e-\	.	2r	.	2cc\	.
8F#\	-fi-	.	.	.	.	.	.
!LO:LB:g=original	!	!	!	!	!	!	!
=46	=46	=46	=46	=46	=46	=46	=46
2G\	-te	2d\	-ris,	4r	.	2bn\	-ris.
.	.	.	.	4d\	as-	.	.
4r	.	4r	.	[2g\	-per-	2r	.
4G\	as-	4Bn\	as-	.	.	.	.
=47	=47	=47	=47	=47	=47	=47	=47
2A-\	-per-	2c\	-per-	4g\]	.	4r	.
.	.	.	.	8.f\L	.	4cc\	as-
.	.	.	.	16e-\Jk	.	.	.
8A-\L	.	8c\L	.	[2f\	.	[2a-X\	-per-
8G\J	.	16d\L	.	.	.	.	.
.	.	16e-\JJ	.	.	.	.	.
8F\L	.	8d\L	.	.	.	.	.
16G\L	.	8c\J	.	.	.	.	.
16A-\JJ	.	.	.	.	.	.	.
!	!	!	!	!LO:LB:g=original	!	!LO:LB:g=original	!
=48	=48	=48	=48	=48	=48	=48	=48
4.G\	.	4.Bn\	.	4f\]	.	4a-\]	.
.	.	.	.	8e-\L	-gi-	4g\	-gi-
8G\	-gi-	8B\	-gi-	8d\J	.	.	.
8C/L	-te	4c\	-te	4e-\	-te	4g\	-te,
8D/J	.	.	.	.	.	.	.
8E-\L	vos	4c\	vos	4d\	vos	4g\	vos
8F\J	.	.	.	.	.	.	.
!	!	!LO:LB:g=original	!	!	!	!	!
=49	=49	=49	=49	=49	=49	=49	=49
2.G\	ci-	2c\	ci-	2e-\	ci-	2.g\	ci-
.	.	4.Bn\	.	4.d\	.	.	.
4G\	-ne-	.	.	.	.	4g\	-ne-
.	.	8c\	-ne-	8c\	-ne-	.	.
=50	=50	=50	=50	=50	=50	=50	=50
1C	-re.	1c	-re.	1c	-re.	1g	-re.
==	==	==	==	==	==	==	==
*-	*-	*-	*-	*-	*-	*-	*-
!!!system-decoration: [(s1,s2,s3,s4)]
!!!ENC: Filip Voros
!!!END: 2023-11-17
!!!ENC: Leszek Kubiak
!!!END: 2024-06-12
